src/components/Icon/svg-icon/social/youtube.svg

<svg xmlns="http://www.w3.org/2000/svg" width="24" height="24" viewBox="0 0 24 24">
  <path fill="red" fill-rule="evenodd" d="M12.2699061,5.00091814 C13.4081081,5.00697784 17.8134671,5.05303162 19.032375,5.40304032 C19.8069886,5.62481048 20.4168409,6.27825403 20.6238409,7.10806855 C21,8.6120121 21,11.75 21,11.75 C21,11.75 21,14.887879 20.6238409,16.3920403 C20.4168409,17.221746 19.8069886,17.8751895 19.032375,18.0970685 C17.6287841,18.5 12,18.5 12,18.5 C12,18.5 6.37121591,18.5 4.96752273,18.0970685 C4.19301136,17.8751895 3.58305682,17.221746 3.37605682,16.3920403 C3.05186991,15.0953496 3.00715447,12.5845404 3.00098682,11.9165729 L3.00098682,11.5834221 C3.00715447,10.9154358 3.05186991,8.40457161 3.37605682,7.10806855 C3.58305682,6.27825403 4.19301136,5.62481048 4.96752273,5.40304032 C6.18651944,5.05303162 10.5918901,5.00697784 11.7300937,5.00091814 Z M10.1590602,8.91937661 L10.1590602,14.5806669 L14.8636057,11.7501299 L10.1590602,8.91937661 Z"/>
</svg>

<svg xmlns="http://www.w3.org/2000/svg" width="24" height="24"><path fill="red" fill-rule="evenodd" d="M12.27 5c1.138.007 5.543.053 6.762.403.775.222 1.385.875 1.592 1.705C21 8.612 21 11.75 21 11.75s0 3.138-.376 4.642c-.207.83-.817 1.483-1.592 1.705C17.63 18.5 12 18.5 12 18.5s-5.629 0-7.032-.403c-.775-.222-1.385-.875-1.592-1.705-.324-1.297-.369-3.807-.375-4.475v-.334c.006-.668.05-3.178.375-4.475.207-.83.817-1.483 1.592-1.705 1.219-.35 5.624-.396 6.762-.402zm-2.11 3.92v5.66l4.704-2.83-4.705-2.83z"/></svg>
